X:1
T:Feuilles d'album
T:À une Fleur
T:A Madame MARIE CINTI-DAMOREAU
T:Pour Mezzo-Soprano ou Baryton
T:Feuilles d'album, No.1
T:À une fleur
T:Georges Bizet
T:Alfred de Musset
T:OpenScore (CC0)
T:OpenScore (CC0)
T:OpenScore (CC0)
T:OpenScore (CC0)
T:OpenScore (CC0)
T:OpenScore (CC0)
T:OpenScore (CC0)
C:Georges Bizet
Z:Alfred de Musset
Z:OpenScore (CC0)
%%score ( 1 2 ) { 3 | ( 4 5 ) }
L:1/8
Q:3/8=76
M:6/8
K:G
V:1 treble nm="Voice"
V:2 treble 
V:3 treble nm="Piano"
V:4 bass 
V:5 bass 
V:1
"^Andantino" z2 z | z6 | z6 | z6 | z6 | z6 | z6 | z6 | z6 | z6 | z6 | z6 | z6 | %13
w: |||||||||||||
"^con tenerezza ma semplice" z2!p! D G2 A | A3- A2 z | A3{AB} A2 G | B6- | B z G!<(! d2 d!<)! | %18
w: Que  me veux-|tu,  _|chè- re fleu-|ret-|te, Ai- ma- ble~et|
 c2!>(! c (BA) B!>)! | A6- | A z z B2 A | G2 F E F G | A2- A/ z/ (D!<(!G) F | E F G A2{A^c} B!<)! | %24
w: char- mant sou- * ve-|nir?|* De- mi-|mor- te~et de- mi- co-|quet- te, Jus- * qu'à|moi qui te fait ve-|
!>(! A6-!>)! | A z!p! D G2 A | A6 | A3{AB} A2 G | B6- | B z!<(! G d2 d!<)! | %30
w: nir?|_ Sous ce ca-|chet|en- ve- lop-|pé-|e, Tu viens de|
 c2 c!>(!{Bc} (BA) B!>)! | A6- | A2 z z B A | G z F E F G | A3 (DG) F | %35
w: faire un long * che-|min; |_ Qu'as- tu|vu? que t'a dit la|main, Qui * sur|
[Q:1/4=66]"^T""^dim." (EF) G A B c | (B3 A3) | %37
w: le * buis- son t'a cou-|\- pé- *|
[Q:1/4=114]"_a tempo."[Q:1/4=76]"^a tempo." G3- G2 z | %38
w: e?  _|
 z2!mf! z[Q:1/4=124]"_Animez."[Q:1/4=86]"^Animez." G F G | A3 E A B | A2- A!>(! (d^c) B!>)! | %41
w: N'es- tu qu'une|her- be des- sé-|\- ché- e, Qui * vient|
 (BA) G F{FA} G3/2 E/ | D3 z!p! D D | E z A F E D | G2 z D ^C D | E3 A F D | %46
w: a- * che- ver de mou-|rir? Ou ton|sein, prêt à re- fleu-|\- rir, Ren- fer- me-|t\-il u- ne pen-|
 G2- G/ z/"^cresc." G F G | A z A B2 B | c2 G G A B |{cd} c B c (d2 ^d) | e2 z!<(! e2 e!<)! | %51
w: sé- e? Ta fleur, hé-|las! a la blan-|\- cheur De la dé- so-|lante in- no- cen- *|ce; Mais de|
 =f2 e d c B | d- d/ z/ c[Q:1/4=82]"^T""^dim." c2"^dim." B | %53
w: la crain- ti- ve~es- pé-|\- ran- ce Ta feuil- le|
[Q:1/4=76]"^T" B2 ^G A2[Q:1/4=70]"^T" e |[Q:1/4=66]"^T" ^d6- |[Q:1/4=60]"^T" (^d6 | =d6-) | %57
w: por- te la cou-|leur, |_||
[Q:1/4=76]"_1° Tempo."[Q:1/4=76]"^1° Tempo." =d z D G2 A | A6 | A3{AB} A2 G | B6- | %61
w: * As- tu pour|moi|quel- que mes-|sa-|
 B z G!<(! d2!<)! d | c z!>(! c{Bc} (BA) B!>)! | A6- | A2 z B2 A | G2 F E F G | %66
w: ge? Tu peux par-|ler, je suis * dis-|\- cret. |_ Ta ver-|dure est- elle un se-|
 A2- A/ z/ (DG)!<(! F | E F G A2 B!<)! |{B^c} B3 A3 | z2!p! D D G F | A6- | A2 z A2 G | B6- | %73
w: cret? * Ton * par-|fum est- il un lan-|\- ga- ge?|S'il en est ain-|si,|_ par- le|bas,|
 B!pp! z G d2 d | c2 c{Bc} (BA) B | A6- | A z A B2 A | G z F (EF) G | A2 z D G F | %79
w: _ Mys- té- ri-|\- eu- se mes- * sa~~-|gè-|re; S'il n'en est|rien, ne ré- * ponds|pas; Dors sur mon|
 (EF)[Q:1/4=72]"^T""^dim." G (A[Q:1/4=68]"^T"d3/2) c/ |[Q:1/4=64]"^T" (B3{AB} A3) | %81
w: coeur, * frai- che et lé-|gè- *|
[Q:1/4=76]"_a tempo."[Q:1/4=76]"^a tempo." G3- G2 z |!mf! z2[Q:1/4=86]"^T""^cresc." G G F G | %83
w: re.  _|Je con- nais trop|
 A3- A ^c B | A2 !>!f- f e d | (^cB) A (GE) A | A2 D z D D | E2 E A F D | G3 D2 D | E2 A F E D | %90
w: bien _ cet- te|main, Plei- * ne de|grâ- * ce~et de * ca-|pri- ce, Qui d'un|brin de fil sou- ple~et|fin A nou-|é ton pâ- le ca-|
 G2- G/ z/"^cresc." G F G | A z A B2 B | c2 z G A B | c2 ^c d2 ^d | e2 e/ z/!<(! e ^d e!<)! | %95
w: \- li- ce, Cet- te main|là, pe- ti- te|fleur, Ni Phi- di-|as, ni Pra- xi-|tè- le N'en au- raient|
 =f2 e (dc) B | (dd/) z/"^dim." c[Q:1/4=74]"^T""^dim." c2 B | %97
w: pu trou- ver * la|sœur, * Qu'en pre- nant|
[Q:1/4=72]"^T" B (^GA) ^f2[Q:1/4=70]"^T" e | (e6 |[Q:1/4=67]"^T" ^d6) |[Q:1/4=64]"^T" =d6- | %101
w: Vé- nus * pour mo-|dè-||le! |
[Q:1/4=76]"^1° Tempo." d2!p! z[Q:1/4=76]"_1° Tempo." D2 G | A3- A2- A/ z/ | A2 A{AB} A2 G | B6- | %105
w: _ Elle est|blan- * che,|elle est douce et|bel-|
 B z (G (G) G/) z/ d | c z c{Bc} (BA) B | A6- | A z A B2 A | (G2 F) E F G | (A2 A/) z/ (D!<(!G) F | %111
w: le, Fran- * che, dit-|on, et plus * en-|cor; |_ A qui sau-|rait _ s'em- pa- rer|d'el- le, El- * le|
 E F G A2{A^c} B!<)! |!>(! A6-!>)! | A z!p! D G2 A | A3- A2- A/ z/ | A3{AB} A2 G | B6- | %117
w: peut ou- vrir un tré-|sor! |_ Mais  elle est|sa- * ge,|elle est sé-|\- vè-|
 B2 z d2 d | c2 c B A B | A6- | A z A B3- | B z G E F G | A2- A/ z/[Q:1/4=72]"^T""^dim." (DG) F | %123
w: re; Quel- que|mal pour- rait m'ar- ri-|ver, |_ Fleu- ret-|\- te, crai- gnons sa co-|lè- re, Ne * dis|
 (E3[Q:1/4=68]"^T" e3) | z A[Q:1/4=62]"^T" B (cA) d | %125
w: rien,  _|lais- se– moi * rê-|
[Q:1/4=76]"_a tempo."[Q:1/4=76]"^a tempo."!<(! d6-!<)! |!<(! d3-!<)! d2 z | !^!f3!>(! e3 | %128
w: ver. |_ _|Ne dis|
 d3-!>)! d z!p! B | A6- | A3- A2 z |!<(!{Bc} (BA) B c3-!<)! |!>(! c3 F3!>)! |!p! (G3 d3-) | %134
w: rien,  _ fleu-|ret-|* te,|lais- * se\- moi |_ rê-|ver!  _|
 d2 z[Q:1/4=72]"^T" (E!p!F) D |!p! (G3!p! d3-) | d2 z!pp! (EFD) | (G3!<(! g3-) | g6-!<)! | %139
w: _ lais- * se–|moi  _|_ rê- * *|||
!>(! g6-!>)![Q:1/4=68]"_T" | g6- | g3- g2 z |[Q:1/4=60]"_T" z6 | !fermata!z6 |] %144
w: rê-||ver!  _|||
V:2
 x3 | x6 | x6 | x6 | x6 | x6 | x6 | x6 | x6 | x6 | x6 | x6 | x6 | x6 | x6 | x6 | x6 | x6 | x6 | %19
w: |||||||||||||||||||
 x6 | x6 | x6 | x6 | x6 | x6 | x6 | x6 | x6 | x6 | x6 | x6 | x6 | x6 | x6 | x6 | x6 | x6 | x6 | %38
w: |||||||||||||||||||
 x6 | x6 | x6 | x6 | x6 | x6 | x6 | x6 | x6 | x6 | x6 | x6 | x6 | x6 | x6 | x6 | x6 | x6 | x6 | %57
w: |||||||||||||||||||
 x6 | x6 | x6 | x6 | x6 | x6 | x6 | x6 | x6 | x6 | x6 | x6 | x6 | x6 | x6 | x6 | x6 | x6 | x6 | %76
w: |||||||||||||||||||
 x6 | x6 | x6 | x6 | x6 | x6 | x6 | x6 | x2 d- d x2 | x6 | x6 | x6 | x6 | x6 | x6 | x6 | x6 | x6 | %94
w: ||||||||||||||||||
 x6 | x6 | x6 | x6 | x6 | x6 | x6 | x6 | x6 | x6 | x6 | x6 | x6 | x6 | x6 | x6 | x6 | x6 | x6 | %113
w: |||||||||||||||||||
 x6 | x6 | x6 | x6 | x6 | x6 | x6 | x6 | x6 | x6 | x6 | x6 | x6 | x6 | G3 x3 | x6 | x6 | x6 | x6 | %132
w: |||||||||||||||||||
 x6 | x6 | x6 | x6 | x6 | G6- | G3- G2 z | (d6 | c6) | B3- B2 z | x6 | x6 |] %144
w: |||||\- ver! |_ _||||||
V:3
!p! z ([GB]D) | z ([Gc]D) z ([Gd]D) | z ([Gf]F) z ([Ge]E) | z ([Gd]D) z ([GB]D) | %4
 z ([DA]A,) z!<(! ([^CGA]A,) | z ([DFA]A,) z ([FA]E)!<)! | z!<(! ([E^GB]D) z ([EAc]C)!<)! | %7
 z!>(! ([CE]A,) z ([CDF]A,)!>)! | z ([B,D=G]G,) z!>(! ([Ge]E) | z ([Gd]D) z ([CF]D) | %10
 z ([B,G]!>)!D)!p! z!>(! ([Ge]E) | z ([Gd]D) z ([CF]D)!>)! |!p! z"^dim." ([B,G]D) z ([B,G]D) | %13
 z ([B,G]D) z ([B,G]D) | z ([CFA]D) z ([CFA]D) | z ([CFA]D) z ([CFA]D) | z ([B,GB]D) z ([B,GB]D) | %17
 z ([B,GB]D) z ([GBd]D) | z!>(! ([Gc]C) z ([GB]B,) | z ([EGA]A,)!>)! z ([EGA]A,) | %20
 z ([EGA]A,) z ([^DGB]B,) | z ([EGB]B,) z ([^CGA]A,) | z ([=DFA]A,) z ([DG]G,) | %23
 z ([EG]G,) z ([GA]E) | z ([GA]D) z ([GA]^C) | z ([=CA]D) z ([B,G]D) | z ([CFA]D) z ([CFA]D) | %27
 z ([CFA]D) z ([CFA]D) | z ([B,GB]D) z ([B,GB]D) | z ([B,GB]D) z ([GBd]!>(!D) | %30
 z ([Gc]C) z ([GB]B,) | z!>)! ([EGA]A,) z ([EGA]A,) | z ([EGA]A,) z ([^DGB]B,) | %33
 z ([EGB]B,) z ([^CGA]A,) | z ([=D^FA]A,) z [DG]G, | z"^colla voce" ([EG]"_dim."G,) z ([CA]E) | %36
 z ([B,F]D) z ([A,CF]D) | z ([B,G]D) z ([Ge]E) | z ([Gd]D) z ([GB]D) | z ([^CGA]A,) z ([CGA]A,) | %40
 z ([DFA]A,) z ([DFA]A,) | z ([EGA]A,) z ([^CGA]A,) | z ([DFA]A,) z ([F,D]A,) | %43
 z ([G,E]A,) z ([DF]A,) | z ([DG]G,) z ([F,D]A,) | z ([G,E]A,) z ([DF]A,) | %46
 z ([DG]G,)"^cresc." z ([B,G]D) | z ([CA]D) z ([GB]D) | z ([Gc]C) z ([GB]D) | %49
 z ([Gc]C) z ([Gd]^D) | z ([Ge]"_sostenuto"E) z ([Ge]E) | z ([=FB]D) z ([FB]D) | %52
 z"_dim." ([Ec]C) z"^dim." ([=F^G]E) | z ([CA]E) z ([C^FA]E) |!p! z ([B,FA]^D) z ([B,FA]D) | %55
"_dim." z ([FA]^D) z ([FB]D) | z ([Fc]=D) z ([Fc]D) | z ([CF]D)!pp! z ([B,=G]D) | %58
 z ([CFA]D) z ([CFA]D) | z ([CFA]D) z ([CFA]D) | z ([B,GB]D) z ([B,GB]D) | %61
 z ([B,GB]D) z!>(! ([GBd]D) | z ([Gc]C) z ([GB]B,)!>)! | z ([EGA]A,) z ([EGA]A,) | %64
 z ([EGA]A,) z ([^DGB]B,) | z ([EGB]B,) z ([^CGA]A,) | z ([=DFA]A,) z ([DG]G,) | %67
 z ([EG]G,) z ([GA]E) | z ([GA]D) z ([GA]^C) | z ([=CA]D) z ([B,G]D) | z ([CFA]D) z ([CFA]D) | %71
 z ([CFA]D) z ([CFA]D) | z ([B,GB]D) z ([B,GB]D) | z ([B,GB]D) z!>(! ([GBd]D) | %74
 z ([Gc]C) z ([GB]B,)!>)! | z ([EGA]A,) z ([EGA]A,) | z ([EGA]A,) z ([^DGB]B,) | %77
 z ([EGB]B,) z ([^CGA]A,) | z ([=D^FA]A,) z ([DG]G,) | z ([DE]G,) z ([CA]E) | %80
 z ([B,F]D) z ([A,CF]D) | z ([B,G]D) z ([Ge]E) | z"_cresc." ([Gd]D) z ([GB]D) | %83
 z ([^CGA]A,) z ([CGA]A,) | z ([DFA]A,) z ([DFA]A,) | z ([EGA]A,) z ([^CGA]A,) | %86
 z ([DFA]A,) z ([F,D]A,) | z ([G,E]A,) z ([DF]A,) | z ([DG]G,) z ([F,D]A,) | %89
 z ([G,E]A,) z ([DF]A,) | z ([DG]G,)!mf!"^cresc." z ([B,G]D) | z ([CA]D) z ([GB]D) | %92
 z ([Gc]C) z ([GB]D) | z ([Gc]^C) z ([Gd]^D) | z ([Ge]"_sostenuto"E) z ([Ge]E) | %95
 z!mf! ([=FB]D) z ([FB]D) | z"_dim." ([Ec]C) z"^dim." ([=F^G]D) | z ([CA]E) z ([C^FA]E) | %98
 z ([B,FA]E) z ([B,FA]E) |"_dim." z ([FA]^D) z ([FB]D) | z ([Fc]=D) z ([Fc]D) | %101
 z ([CF]D) z ([B,=G]D) | z ([CFA]D) z ([CFA]D) | z ([CFA]D) z ([CFA]D) | z ([B,GB]D) z ([B,GB]D) | %105
 z ([B,GB]D) z!>(! ([GBd]D) | z ([Gc]C) z ([GB]B,) | z!>)! ([EGA]A,) z ([EGA]A,) | %108
 z ([EGA]A,)!p! z ([^DGB]B,) | z ([EGB]B,) z ([^CGA]A,) | z ([=DFA]A,) z ([DG]G,) | %111
 z ([EG]G,) z ([GA]E) | z ([GA]D) z ([GA]^C) | z ([=CA]D) z ([B,G]D) | z ([CFA]D) z ([CFA]D) | %115
 z ([CFA]D) z ([CFA]D) | z ([B,GB]D) z ([B,GB]D) | z ([B,GB]D)!p! z!>(! ([GBd]D) | %118
 z ([Gc]C) z ([GB]B,) | z!>)! ([EGA]A,) z ([EGA]A,) | z ([EGA]A,) z ([^DGB]B,) | %121
 z ([EGB]B,) z ([^CGA]A,) | z ([=D^FA]A,) z ([DG]G,) | z"^dim." ([DEG]G,) z ([CEG]A,) | %124
 z ([CDG]A,) z ([CDF]A,) | z ([B,DG]G,) z ([GB]D) | z ([Gc]D) z ([Gd]D) | z ([Gf]F) z ([Ge]E) | %128
 z ([Gd]D) z ([GB]D) | z ([DA]A,) z!<(! ([^CGA]A,) | z ([DFA]A,) z ([FA]E)!<)! | %131
 z ([E^GB]D) z ([EAc]C) | z ([CE]A,) z ([CDF]A,) | z ([B,D=G]=G,) z ([EG]D) | z ([Gd]D) z ([CF]D) | %135
 z ([B,G]D) z!>(! ([EG]D) | z ([Gd]D) z ([CF]D)!>)! | z ([B,G]D) z ([GB]D) | z ([Ac]G) z ([Bd]G) | %139
 z ([d^f]G) z z2 | z ([ce]G) z z2 |!pp! [DGBd]3- [DGBd]2 z | %142
 !tenuto!.[G,B,D]2 z!ppp! !tenuto!.[G,B,D]2 z |!ppp! !fermata![G,B,G]6 |] %144
V:4
"_legato"!<(! (G,3 | A,3 B,3!<)! | D3!>(! C3 | B,3 G,3!>)! | F,3 E,3 | D,3 =C,3 | B,,3 A,,3 | %7
 D,3 D,,3 | =G,,3) ([C,D,-]3 | [B,,D,]3 [A,,D,]3 | [G,,D,]3) ([C,D,-]3 | [B,,D,]3 [A,,D,]3 | %12
 [G,,D,]3) [G,,D,]3 | [G,,D,]3!pp! [G,,D,]3 | [G,,D,]3 [G,,D,]3 | [G,,D,]3 [G,,D,]3 | %16
 [G,,D,]3 [G,,D,]3 | [G,,D,]3 [F,G,-]3 | [E,G,]3 [D,G,]3 | G,6 | C,3 (B,,3 | E,3) (A,,3 | %22
 =D,3) (B,,3 |!<(! =C,3 ^C,3 | D,3 E,3!<)! |!>(! F,3!>)!!pp! [G,,D,G,]3) | [G,,D,]3 [G,,D,]3 | %27
 [G,,D,]3 [G,,D,]3 | [G,,D,]3 [G,,D,]3 | [G,,D,]3 [=F,G,-]3 | [E,G,]3 [D,G,]3 | G,6 | C,3 (B,,3 | %33
 E,3) (A,,3 | =D,3)!>(! (B,,3!>)! | C,3 A,,3 | D,3 D,,3 | G,,3)!>(! ([C,D,-]3 | %38
 [B,,D,]3!>)!!p! G,3 | E,3 A,,3 | F,3 A,,3 | ^C,3 A,,3 | D,3) (D,3- | [^C,D,]3 [=C,D,]3 | %44
 [B,,D,]3) (D,3- | [^C,D,]3 [=C,D,]3 | [B,,D,]3) G,3- | [F,G,]3 [=F,G,]3 | [E,G,]3 [=F,G,]3 | %49
 [E,G,]3 [B,,G,]3 | G,3 (G,3 | ^G,6 | A,3 B,3 | C3 ^F,3 | B,,3) F,3 | B,3 B,,3 | A,,3 D,3 | %57
 A,3 [=G,,D,=G,]3 | [G,,D,]3 [G,,D,]3 | [G,,D,]3 [G,,D,]3 | [G,,D,]3 [G,,D,]3 | %61
 [G,,D,]3 ([F,G,-]3 | [E,G,]3 [D,G,]3 | G,6) | C,3 (B,,3 | E,3) (A,,3 | =D,3) (B,,3 | %67
!<(! =C,3 ^C,3 | D,3 E,3!<)! |!>(! F,3!>)!!pp! [G,,D,G,]3) | [G,,D,]3 [G,,D,]3 | %71
 [G,,D,]3 [G,,D,]3 | [G,,D,]3 [G,,D,]3 | [G,,D,]3 [=F,G,-]3 | [E,G,]3 [D,G,]3 | G,6 | C,3 (B,,3 | %77
 E,3) (A,,3 | =D,3) (B,,3 |"^colla voce" C,3 A,,3 | D,3 D,,3 | G,,3)!>(! ([C,D,-]3 | %82
 [B,,D,]3!>)!!p! G,3 | E,3 A,,3 | F,3 A,,3 | ^C,3 A,,3 | D,3) (D,3- | [^C,D,-]3 [=C,D,]3 | %88
 [B,,D,]3) (D,3- | [^C,D,]3 [=C,D,]3 | [B,,D,]3) (G,3- | [F,G,]3 [=F,G,]3 | [E,G,]3 [=F,G,]3 | %93
 [E,G,]3 [B,,G,]3) | (G,3 G,3 | ^G,6 | A,3 B,3 | C3 ^F,3 |!p! B,,3) F,3 | B,3 B,,3 | A,,3 D,3 | %101
 A,3!pp! [=G,,D,=G,]3 | [G,,D,]3 [G,,D,]3 | [G,,D,]3 [G,,D,]3 | [G,,D,]3 [G,,D,]3 | %105
 [G,,D,]3 ([F,G,-]3 | [E,G,]3 [D,G,]3 | G,6) | C,3 (B,,3 | E,3) (A,,3 | =D,3) (B,,3 | %111
!<(! =C,3 ^C,3 | D,3 E,3!<)! |!>(! F,3!>)!!pp! [G,,D,G,]3) | [G,,D,]3 [G,,D,]3 | %115
 [G,,D,]3 [G,,D,]3 | [G,,D,]3 [G,,D,]3 | [G,,D,]3 [=F,G,-]3 | [E,G,]3 [D,G,]3 | G,6 | C,3 (B,,3 | %121
 E,3) (A,,3 | =D,3) (B,,3 | C,3 A,,3 | D,3 D,,3 | G,,3) (G,3 |!<(! A,3 B,3!<)! | D3!>(! C3 | %128
 B,3!>)! G,3 | F,3 E,3 | D,3 =C,3 | B,,3 A,,3 | D,3 D,,3 |!pp! =G,,3)!>(! ([C,D,-]3 | %134
 [B,,D,]3 [A,,D,]3 | [G,,D,]3)!>)! ([C,D,-]3 | [B,,D,]3 [A,,D,]3 |!pp! [G,,D,]3)!<(! =G,3- | %138
 G,3!<)! G,3- | G,3"_dim." G,3- | G,3 G,3- | [G,,G,]3- [G,,G,]2 z | %142
!ppp!"_calando" !tenuto!.[G,,D,]2 z !tenuto!.[G,,D,]2 z | !fermata![G,,D,]6 |] %144
V:5
 x3 | x6 | x6 | x6 | x6 | x6 | x6 | x6 | x6 | x6 | x6 | x6 | x6 | x6 | x6 | x6 | x6 | x6 | x6 | %19
 C,3 C,3 | x6 | x6 | x6 | x6 | x6 | x6 | x6 | x6 | x6 | x6 | x6 | C,3 C,3 | x6 | x6 | x6 | x6 | %36
 x6 | x6 | x6 | x6 | x6 | x6 | x6 | x6 | x6 | x6 | x6 | x6 | x6 | x6 | C,3 C,3 | C,3 C,3 | C,6- | %53
 C,3 ^F,,3 | x6 | x6 | x6 | x6 | x6 | x6 | x6 | x6 | x6 | C,3 C,3 | x6 | x6 | x6 | x6 | x6 | x6 | %70
 x6 | x6 | x6 | x6 | x6 | C,3 C,3 | x6 | x6 | x6 | x6 | x6 | x6 | x6 | x6 | x6 | x6 | x6 | x6 | %88
 x6 | x6 | x6 | x6 | x6 | x6 | C,3 C,3 | C,3 C,3 | C,6- | C,3 ^F,,3 | x6 | x6 | x6 | x6 | x6 | x6 | %104
 x6 | x6 | x6 | C,3 C,3 | x6 | x6 | x6 | x6 | x6 | x6 | x6 | x6 | x6 | x6 | x6 | C,3 C,3 | x6 | %121
 x6 | x6 | x6 | x6 | x6 | x6 | x6 | x6 | x6 | x6 | x6 | x6 | x6 | x6 | x6 | x6 | x3 F,3 | E,3 D,3 | %139
 C,6 | C,4 x2 | x6 | x6 | x6 |] %144

